contributed-vectors/yasnac.svg

<?xml version="1.0" encoding="UTF-8" standalone="no"?>
<svg
   width="192"
   height="192"
   version="1.1"
   viewBox="0 0 192 192"
   id="svg14"
   sodipodi:docname="yasnac.svg"
   inkscape:version="1.1 (c68e22c387, 2021-05-23)"
   inkscape:export-xdpi="96"
   inkscape:export-ydpi="96"
   xmlns:inkscape="http://www.inkscape.org/namespaces/inkscape"
   xmlns:sodipodi="http://sodipodi.sourceforge.net/DTD/sodipodi-0.dtd"
   xmlns="http://www.w3.org/2000/svg"
   xmlns:svg="http://www.w3.org/2000/svg"
   xmlns:rdf="http://www.w3.org/1999/02/22-rdf-syntax-ns#"
   xmlns:cc="http://creativecommons.org/ns#"
   xmlns:dc="http://purl.org/dc/elements/1.1/">
  <metadata
     id="metadata20">
    <rdf:RDF>
      <cc:Work
         rdf:about="">
        <dc:format>image/svg+xml</dc:format>
        <dc:type
           rdf:resource="http://purl.org/dc/dcmitype/StillImage" />
      </cc:Work>
    </rdf:RDF>
  </metadata>
  <defs
     id="defs18" />
  <sodipodi:namedview
     pagecolor="#ffffff"
     bordercolor="#666666"
     borderopacity="1"
     objecttolerance="10"
     gridtolerance="10"
     guidetolerance="10"
     inkscape:pageopacity="0"
     inkscape:pageshadow="2"
     inkscape:window-width="1718"
     inkscape:window-height="1376"
     id="namedview16"
     showgrid="false"
     inkscape:zoom="3.3697917"
     inkscape:cx="108.61205"
     inkscape:cy="153.12519"
     inkscape:window-x="1706"
     inkscape:window-y="0"
     inkscape:window-maximized="0"
     inkscape:current-layer="svg14"
     inkscape:document-rotation="0"
     inkscape:pagecheckerboard="0" />
  <rect
     x="19.999977"
     y="19.999977"
     width="152.00005"
     height="152.00005"
     rx="9.9346428"
     opacity="0.63"
     id="rect2"
     style="fill:#fcecdc;stroke:none;stroke-width:0.999958;stroke-miterlimit:4;stroke-dasharray:none;fill-opacity:1;opacity:1" />
  <path
     style="fill:#8e6f60;fill-opacity:1;stroke:none;stroke-width:1"
     d="M 93.860264,132.22452 C 92.828165,131.96039 90.961951,131.2285 89.713121,130.59809 79.511876,125.44852 72.407248,116.99601 68.522829,105.38758 67.351445,101.88696 67.181,100.88192 66.900537,95.82161 66.728173,92.711705 66.580933,85.756772 66.57334,80.366202 l -0.01381,-9.801036 14.661292,-5.532585 14.661289,-5.532583 14.779179,5.534009 14.77918,5.53401 -0.23707,13.066148 c -0.27309,15.051006 -0.53589,17.865485 -2.07585,22.230605 -4.052,11.48578 -12.26674,20.78752 -22.26938,25.21615 -3.281663,1.45295 -4.811952,1.70303 -6.997906,1.1436 z M 102.4673,98.902159 112.78242,88.582275 110.47949,86.10822 c -1.26661,-1.36073 -2.44847,-2.531726 -2.62637,-2.60221 -0.17789,-0.07049 -3.73253,3.236881 -7.899207,7.349707 -4.166671,4.112824 -7.7604,7.477862 -7.986064,7.477862 -0.225662,0 -2.083693,-1.628091 -4.128957,-3.617978 l -3.71866,-3.61798 -2.50309,2.522419 -2.50309,2.522417 1.072446,1.151131 c 3.312686,3.555742 11.556412,11.928452 11.74468,11.928452 0.12155,0 4.862803,-4.64394 10.536122,-10.319881 z"
     id="path2802"
     inkscape:export-filename="G:\My Drive\Projects\Delta Icons\workspace\path2802.png"
     inkscape:export-xdpi="96"
     inkscape:export-ydpi="96" />
</svg>

<svg xmlns="http://www.w3.org/2000/svg" width="192" height="192"><rect width="152" height="152" x="20" y="20" opacity=".63" rx="9.935" style="fill:#fcecdc;stroke:none;stroke-width:.999958;stroke-miterlimit:4;stroke-dasharray:none;fill-opacity:1;opacity:1"/><path d="M93.86 132.225c-1.032-.265-2.898-.996-4.147-1.627-10.201-5.15-17.306-13.602-21.19-25.21-1.172-3.501-1.342-4.506-1.622-9.566-.173-3.11-.32-10.065-.328-15.456l-.013-9.8 14.66-5.533L95.883 59.5l14.78 5.534 14.778 5.534-.237 13.066c-.273 15.051-.535 17.866-2.075 22.23-4.052 11.487-12.267 20.788-22.27 25.217-3.281 1.453-4.812 1.703-6.998 1.144zm8.607-33.323 10.315-10.32-2.303-2.474c-1.266-1.36-2.448-2.532-2.626-2.602-.178-.07-3.732 3.237-7.9 7.35-4.166 4.113-7.76 7.478-7.985 7.478-.226 0-2.084-1.629-4.13-3.618l-3.718-3.618-2.503 2.522-2.503 2.522 1.072 1.152c3.313 3.555 11.557 11.928 11.745 11.928.122 0 4.863-4.644 10.536-10.32z" style="fill:#8e6f60;fill-opacity:1;stroke:none;stroke-width:1"/></svg>
